X: 7225
T: Clan Coco
R: reel
M: 4/4
K: Fdorian
|:g3 f eccB|c3 e B4|c3 e BecB|efff fece|
g3 g fecB|c3 e BccB|A2 (3Bce BccB|fggf e4:|
|:BccB ccBc|ccec BceB|g3 g gfeg|
[1 fgfe c2 Bc|cceB ccBc|ccec BceB|fgge fBBB|fggf e4:|
[2 fgfe cbba|g3 f eccB|ceef BccB|A2 (3Bce BccB|fggf e4||

